packages/vapor/resources/icons/svg/card-type-LineChart-line.svg

<svg enable-background="new 0 0 32 32" viewBox="0 0 32 32" xmlns="http://www.w3.org/2000/svg"><g fill="#00a78a"><path d="m30.006 0h-28.012c-1.101 0-1.994.893-1.994 1.994v28.012c0 1.101.893 1.994 1.994 1.994h28.012c1.101 0 1.994-.893 1.994-1.994v-28.012c0-1.101-.893-1.994-1.994-1.994zm-.006 30h-28v-28h28z"/><path d="m26 23.972v-.992c0-.554-.449-1-1-1h-16.989v-5.446l3.329-2.208 3.492 3.848c.361.396.971.439 1.382.096l4.154-3.47 3.635 3.619v1.226c0 .553.447 1 1 1s1-.447 1-1v-1.642c0-.266-.106-.521-.295-.709l-4.577-4.555c-.368-.365-.95-.389-1.347-.059l-4.116 3.439-3.424-3.773c-.333-.367-.882-.435-1.293-.162l-2.939 1.949v-1.704l3.503-3.102 3.408 2.918c.288.247.691.309 1.04.161l4.314-1.826 3.726 2.896v1.153c0 .552.447 1 1 1s1-.448 1-1v-1.642c0-.309-.143-.6-.387-.79l-4.576-3.554c-.286-.222-.67-.273-1-.131l-4.285 1.813-3.598-3.082c-.38-.324-.94-.32-1.313.011l-2.83 2.505v-2.769c0-.551-.447-.997-.997-.997h-.013c-.551 0-.998.447-.998.997v15.993.011.981c0 .554.449 1 1 1h17.994c.554 0 1-.449 1-1"/></g></svg>

<svg xmlns="http://www.w3.org/2000/svg" viewBox="0 0 32 32" enable-background="new 0 0 32 32">
  <g fill="#00a78a">
    <path d="M30.006,0H1.994C0.893,0,0,0.893,0,1.994v28.012C0,31.107,0.893,32,1.994,32h28.012
		C31.107,32,32,31.107,32,30.006V1.994C32,0.893,31.107,0,30.006,0z M30,30H2V2h28V30z"/>
    <path
        d="m26 23.972v-.992c0-.554-.449-1-1-1h-16.989v-5.446l3.329-2.208 3.492 3.848c.361.396.971.439 1.382.096l4.154-3.47 3.635 3.619v1.226c0 .553.447 1 1 1s1-.447 1-1v-1.642c0-.266-.106-.521-.295-.709l-4.577-4.555c-.368-.365-.95-.389-1.347-.059l-4.116 3.439-3.424-3.773c-.333-.367-.882-.435-1.293-.162l-2.939 1.949v-1.704l3.503-3.102 3.408 2.918c.288.247.691.309 1.04.161l4.314-1.826 3.726 2.896v1.153c0 .552.447 1 1 1s1-.448 1-1v-1.642c0-.309-.143-.6-.387-.79l-4.576-3.554c-.286-.222-.67-.273-1-.131l-4.285 1.813-3.598-3.082c-.38-.324-.94-.32-1.313.011l-2.83 2.505v-2.769c0-.551-.447-.997-.997-.997h-.013c-.551 0-.998.447-.998.997v15.993.011.981c0 .554.449 1 1 1h17.994c.554 0 1-.449 1-1"/>
  </g>
</svg>
